X: 24937
T: Maid Behind The Bar, The
R: reel
M: 4/4
K: Dmajor
Bdgd Bdgd|Bdgd BGG2|Ac=fc Ac=fc|Ac=fc A=FF2|
Bdgd Bdgd|!1!(3B!2!c!3!^c !4!(3d!!e!1!f!2! g3a|bgaf gdBd|AGFG ABcA||

